icons/millipedia.svg

<svg clip-rule="evenodd" fill-rule="evenodd" stroke-linejoin="round" stroke-miterlimit="2" viewBox="0 0 384 384" xmlns="http://www.w3.org/2000/svg" width="1em" height="1em"><g fill="currentColor" fill-rule="nonzero"><path d="m353.783 206.991c-8.241-2.962-3.663-13.327 3.761-27.148 28.46-52.987-33.434-82.096-57.328-80.951-20.602.987-61.582 22.729-71.298 27.634-.077.039-.12-.086-.046-.13 45.285-26.752 78.986-52.682 66.766-65.51-20.706-21.739-52.193-7.404-70.049 0s-39.833 37.954-58.145 54.947c-15.826 14.686-43.952 24.015-59.061 31.433-15.109 7.419-18.184 26.161-9.615 32.084 8.477 6.786 16.029 14.82 22.434 23.868 7.326 9.062 21.519 8.214 28.386 7.72s10.531 10.366 1.374 15.302-28.997 17.016-22.528 26.718c10.53 15.795 25.18 14.315 35.711 12.769 10.53-1.545 30.769-29.735 62.817-32.577 17.94-1.592 12.362 12.34 5.575 20.238-1.588 1.364-2.514 3.438-2.514 5.627 0 2.966 1.7 5.642 4.266 6.712h118.12c9.423 0 10.988-7.403 20.603-29.735 9.615-22.331-10.988-26.04-19.229-29.001zm-207.492-38.902c-.001 0-.001 0-.001 0-4.911 0-8.952-4.356-8.952-9.651 0-5.294 4.041-9.651 8.952-9.651s8.952 4.357 8.952 9.651c-.001 5.294-4.041 9.651-8.951 9.651z"/><path d="m180.587 285.71c-12.449 0-22.692 11.044-22.692 24.465s10.243 24.465 22.692 24.465c12.448 0 22.692-11.044 22.692-24.465-.014-13.415-10.249-24.45-22.692-24.465z"/><path d="m123.794 271.667v45.797h30.868c-.595-2.419-.897-4.912-.897-7.415 0-15.864 12.108-28.918 26.822-28.918 14.715 0 26.823 13.054 26.823 28.918 0 2.503-.302 4.996-.897 7.415h100.348c-.596-2.42-.897-4.913-.897-7.418 0-15.864 12.108-28.918 26.822-28.918 14.715 0 26.823 13.054 26.823 28.918 0 2.505-.301 4.998-.897 7.418h25.288v-45.797z"/><path d="m332.786 285.71c-12.449 0-22.692 11.044-22.692 24.465s10.243 24.465 22.692 24.465c12.448 0 22.692-11.044 22.692-24.465-.014-13.415-10.249-24.449-22.692-24.465z"/><path d="m4.077 331.189c-2.237-.001-4.077-1.986-4.077-4.397 0-1.888 1.127-3.574 2.787-4.171.891-.321 1.746-.553 2.572-.777.955-.222 1.89-.535 2.795-.934.246-.621.441-1.264.583-1.922.34-1.949 1.163-3.763 2.382-5.249 4.114-4.204 8.813-7.688 13.926-10.326.376-.742.691-1.517.943-2.318.596-2.782 2.293-5.148 4.641-6.469.817-.352 1.64-.67 2.469-.954-1.27-5.484-.861-11.266 1.165-16.478l.203-.46c.844-1.936 2.415-5.541 5.846-6.111 8.176-.972 16.259 2.705 21.318 9.697 2.516 3.486 3.457 8.009 2.563 12.319 4.534-1.548 9.458-1.08 13.671 1.299.699.288 1.358.56 1.955.777 2.99.901 5.52 3.063 7.017 5.995.696 1.798.623 3.838-.2 5.573-1.562 3.274-3.799 6.119-6.537 8.319 1.007.127 2.021.189 3.035.186.547 0 1.216.054 1.925.114.736.09 1.478.116 2.218.08.166-.067.448-.174.736-.283 1.33-.547 2.702-.965 4.1-1.249.314-.057.626-.118.936-.184-.964-.807-1.758-1.824-2.329-2.986-1.709-3.023-1.09-6.982 1.442-9.234 4.796-2.96 10.811-2.48 15.151 1.209 1.736 1.418 2.85 3.552 3.074 5.888 1.032-.419 1.862-1.273 2.302-2.363 1.025-2.259-.301-5.245-2.442-9.545-2.373-4.765-5.625-11.289-.687-16.609 2.554-2.446 6.039-3.443 9.382-2.686 2.697.325 5.144 1.867 6.732 4.24l.101.129c2.337 2.169 2.792 5.929 1.05 8.672-1.239 1.616-2.923 2.765-4.807 3.282-.253.099-.591.229-.836.335-.627.714-1.377 1.29-2.209 1.694 2.44 4.332 2.826 9.668 1.04 14.356-2.816 5.687-8.718 8.826-14.618 7.774-3.654 2.403-7.713 4.002-11.943 4.705-.931.209-1.843.499-2.73.868-.33.127-.654.248-.968.362-1.748.49-3.571.597-5.358.313-.466-.041-.904-.086-1.263-.086-4.324.11-8.61-.913-12.486-2.982-1.564.901-3.249 1.533-4.993 1.873-8.095 1.454-22.755-1.99-28.259-10.905-1.525-2.811-2.448-5.955-2.703-9.2-.151.058-.301.117-.451.178-.195.433-.442 1.142-.62 1.651-.698 3.132-2.627 5.787-5.281 7.267-4.138 2.16-7.953 4.973-11.32 8.348-.159.478-.296.965-.409 1.458-.455 3.103-2.172 5.829-4.678 7.431-1.467.735-3.005 1.294-4.585 1.666-.666.179-1.333.356-1.977.59-.417.151-.854.229-1.294.23zm38.604-30.727c.118 2.162.628 4.279 1.501 6.229 2.939 4.761 12.458 7.793 18.794 7.277-1.572-1.971-2.98-4.088-4.206-6.326-1.291-2.494-1.247-5.552.116-8.001-1.901.471-3.861.605-5.803.397-.363-.022-.684-.044-.935-.044-3.162-.036-6.322.12-9.467.468zm23.419 3.255c1.354 2.475 3.043 4.718 5.011 6.656 2.981-1.5 5.561-3.791 7.498-6.657-.441-.266-.902-.488-1.379-.666-.697-.251-1.465-.565-2.28-.901-5.036-2.077-6.845-2.318-7.45-1.014-.203.437-.477.929-.783 1.454-.182.313-.448.774-.617 1.128zm55.621-10.859-.004.004zm-79.289-13.647c-.215.41-.449.949-.586 1.261-.107.245-.202.468-.293.655-1.169 3.428-1.337 7.162-.48 10.695 3.675-.46 7.374-.668 11.074-.622.372 0 .848.026 1.386.058.844.063 1.689.076 2.534.039.611-1.995.22-4.195-1.032-5.805-3.09-4.055-7.737-6.371-12.603-6.281zm74.253 6.321c-.473-.045-.948.064-1.363.312-.229.246-.177.807.037 1.53l.012-.003c.66-.759 1.464-1.356 2.357-1.749-.344-.059-.693-.089-1.043-.09zm9.114-4.106.035.072z"/></g></svg>

<?xml version="1.0" encoding="UTF-8" standalone="no"?>
<!DOCTYPE svg PUBLIC "-//W3C//DTD SVG 1.1//EN" "http://www.w3.org/Graphics/SVG/1.1/DTD/svg11.dtd">
<svg width="1em" height="1em" viewBox="0 0 16 16" version="1.1" xmlns="http://www.w3.org/2000/svg" xmlns:xlink="http://www.w3.org/1999/xlink" xml:space="preserve" xmlns:serif="http://www.serif.com/" style="fill-rule:evenodd;clip-rule:evenodd;stroke-linejoin:round;stroke-miterlimit:2;">
    <g transform="matrix(0.0401957,0,0,0.0401957,0.282417,2.19123)">
        <path d="M353.783,206.991C345.542,204.029 350.12,193.664 357.544,179.843C386.004,126.856 324.11,97.747 300.216,98.892C279.614,99.879 238.634,121.621 228.918,126.526C228.841,126.565 228.798,126.44 228.872,126.396C274.157,99.644 307.858,73.714 295.638,60.886C274.932,39.147 243.445,53.482 225.589,60.886C207.733,68.29 185.756,98.84 167.444,115.833C151.618,130.519 123.492,139.848 108.383,147.266C93.274,154.685 90.199,173.427 98.768,179.35C107.245,186.136 114.797,194.17 121.202,203.218C128.528,212.28 142.721,211.432 149.588,210.938C156.455,210.444 160.119,221.304 150.962,226.24C141.805,231.176 121.965,243.256 128.434,252.958C138.964,268.753 153.614,267.273 164.145,265.727C174.675,264.182 194.914,235.992 226.962,233.15C244.902,231.558 239.324,245.49 232.537,253.388C230.949,254.752 230.023,256.826 230.023,259.015C230.023,261.981 231.723,264.657 234.289,265.727L352.409,265.727C361.832,265.727 363.397,258.324 373.012,235.992C382.627,213.661 362.024,209.952 353.783,206.991ZM146.291,168.089L146.29,168.089C141.379,168.089 137.338,163.733 137.338,158.438C137.338,153.144 141.379,148.787 146.29,148.787C151.201,148.787 155.242,153.144 155.242,158.438C155.241,163.732 151.201,168.089 146.291,168.089Z" fill="currentColor"/>
        <path d="M180.587,285.71C168.138,285.71 157.895,296.754 157.895,310.175C157.895,323.596 168.138,334.64 180.587,334.64C193.035,334.64 203.279,323.596 203.279,310.175C203.265,296.76 193.03,285.725 180.587,285.71Z" fill="currentColor"/>
        <path d="M123.794,271.667L123.794,317.464L154.662,317.464C154.067,315.045 153.765,312.552 153.765,310.049C153.765,294.185 165.873,281.131 180.587,281.131C195.302,281.131 207.41,294.185 207.41,310.049C207.41,312.552 207.108,315.045 206.513,317.464L306.861,317.464C306.265,315.044 305.964,312.551 305.964,310.046C305.964,294.182 318.072,281.128 332.786,281.128C347.501,281.128 359.609,294.182 359.609,310.046C359.609,312.551 359.308,315.044 358.712,317.464L384,317.464L384,271.667L123.794,271.667Z" fill="currentColor"/>
        <path d="M332.786,285.71C320.337,285.71 310.094,296.754 310.094,310.175C310.094,323.596 320.337,334.64 332.786,334.64C345.234,334.64 355.478,323.596 355.478,310.175C355.464,296.76 345.229,285.726 332.786,285.71Z" fill="currentColor"/>
        <path d="M4.077,331.189C1.84,331.188 0,329.203 0,326.792C0,324.904 1.127,323.218 2.787,322.621C3.678,322.3 4.533,322.068 5.359,321.844C6.314,321.622 7.249,321.309 8.154,320.91C8.4,320.289 8.595,319.646 8.737,318.988C9.077,317.039 9.9,315.225 11.119,313.739C15.233,309.535 19.932,306.051 25.045,303.413C25.421,302.671 25.736,301.896 25.988,301.095C26.584,298.313 28.281,295.947 30.629,294.626C31.446,294.274 32.269,293.956 33.098,293.672C31.828,288.188 32.237,282.406 34.263,277.194L34.466,276.734C35.31,274.798 36.881,271.193 40.312,270.623C48.488,269.651 56.571,273.328 61.63,280.32C64.146,283.806 65.087,288.329 64.193,292.639C68.727,291.091 73.651,291.559 77.864,293.938C78.563,294.226 79.222,294.498 79.819,294.715C82.809,295.616 85.339,297.778 86.836,300.71C87.532,302.508 87.459,304.548 86.636,306.283C85.074,309.557 82.837,312.402 80.099,314.602C81.106,314.729 82.12,314.791 83.134,314.788C83.681,314.788 84.35,314.842 85.059,314.902C85.795,314.992 86.537,315.018 87.277,314.982C87.443,314.915 87.725,314.808 88.013,314.699C89.343,314.152 90.715,313.734 92.113,313.45C92.427,313.393 92.739,313.332 93.049,313.266C92.085,312.459 91.291,311.442 90.72,310.28C89.011,307.257 89.63,303.298 92.162,301.046C96.958,298.086 102.973,298.566 107.313,302.255C109.049,303.673 110.163,305.807 110.387,308.143C111.419,307.724 112.249,306.87 112.689,305.78C113.714,303.521 112.388,300.535 110.247,296.235C107.874,291.47 104.622,284.946 109.56,279.626C112.114,277.18 115.599,276.183 118.942,276.94C121.639,277.265 124.086,278.807 125.674,281.18L125.775,281.309C128.112,283.478 128.567,287.238 126.825,289.981C125.586,291.597 123.902,292.746 122.018,293.263C121.765,293.362 121.427,293.492 121.182,293.598C120.555,294.312 119.805,294.888 118.973,295.292C121.413,299.624 121.799,304.96 120.013,309.648C117.197,315.335 111.295,318.474 105.395,317.422C101.741,319.825 97.682,321.424 93.452,322.127C92.521,322.336 91.609,322.626 90.722,322.995C90.392,323.122 90.068,323.243 89.754,323.357C88.006,323.847 86.183,323.954 84.396,323.67C83.93,323.629 83.492,323.584 83.133,323.584C78.809,323.694 74.523,322.671 70.647,320.602C69.083,321.503 67.398,322.135 65.654,322.475C57.559,323.929 42.899,320.485 37.395,311.57C35.87,308.759 34.947,305.615 34.692,302.37C34.541,302.428 34.391,302.487 34.241,302.548C34.046,302.981 33.799,303.69 33.621,304.199C32.923,307.331 30.994,309.986 28.34,311.466C24.202,313.626 20.387,316.439 17.02,319.814C16.861,320.292 16.724,320.779 16.611,321.272C16.156,324.375 14.439,327.101 11.933,328.703C10.466,329.438 8.928,329.997 7.348,330.369C6.682,330.548 6.015,330.725 5.371,330.959C4.954,331.11 4.517,331.188 4.077,331.189ZM42.681,300.462C42.799,302.624 43.309,304.741 44.182,306.691C47.121,311.452 56.64,314.484 62.976,313.968C61.404,311.997 59.996,309.88 58.77,307.642C57.479,305.148 57.523,302.09 58.886,299.641C56.985,300.112 55.025,300.246 53.083,300.038C52.72,300.016 52.399,299.994 52.148,299.994C48.986,299.958 45.826,300.114 42.681,300.462ZM66.1,303.717C67.454,306.192 69.143,308.435 71.111,310.373C74.092,308.873 76.672,306.582 78.609,303.716C78.168,303.45 77.707,303.228 77.23,303.05C76.533,302.799 75.765,302.485 74.95,302.149C69.914,300.072 68.105,299.831 67.5,301.135C67.297,301.572 67.023,302.064 66.717,302.589C66.535,302.902 66.269,303.363 66.1,303.717ZM121.721,292.858L121.717,292.862L121.721,292.858ZM42.432,279.211C42.217,279.621 41.983,280.16 41.846,280.472C41.739,280.717 41.644,280.94 41.553,281.127C40.384,284.555 40.216,288.289 41.073,291.822C44.748,291.362 48.447,291.154 52.147,291.2C52.519,291.2 52.995,291.226 53.533,291.258C54.377,291.321 55.222,291.334 56.067,291.297C56.678,289.302 56.287,287.102 55.035,285.492C51.945,281.437 47.298,279.121 42.432,279.211ZM116.685,285.532C116.212,285.487 115.737,285.596 115.322,285.844C115.093,286.09 115.145,286.651 115.359,287.374L115.371,287.371C116.031,286.612 116.835,286.015 117.728,285.622C117.384,285.563 117.035,285.533 116.685,285.532ZM125.799,281.426L125.834,281.498L125.799,281.426Z" fill="currentColor"/>
    </g>
</svg>
